material/.icons/material/link-variant-remove.svg

<svg xmlns="http://www.w3.org/2000/svg" viewBox="0 0 24 24"><path d="M10.6 13.4a1 1 0 01-1.4 1.4 4.8 4.8 0 010-7l3.5-3.6a5.1 5.1 0 017.1 0 5.1 5.1 0 010 7.1l-1.5 1.5a6.4 6.4 0 00-.4-2.4l.5-.5a3.2 3.2 0 000-4.3 3.2 3.2 0 00-4.3 0l-3.5 3.6a2.9 2.9 0 000 4.2m5.6.3a4.8 4.8 0 00-1.4-4.5 1 1 0 00-1.4 1.4 2.9 2.9 0 010 4.2l-3.5 3.6a3.2 3.2 0 01-4.3 0 3.2 3.2 0 010-4.3l.5-.4a7.3 7.3 0 01-.4-2.5l-1.5 1.5a5.1 5.1 0 000 7.1 5.1 5.1 0 007.1 0l1.8-1.8a6 6 0 013.1-4.3m4.9 1.8L19 17.6l-2.1-2.1-1.4 1.4 2.1 2.1-2.1 2.1 1.4 1.4 2.1-2.1 2.1 2.1 1.4-1.4-2.1-2.1 2.1-2.1z"/></svg>

<?xml version="1.0" encoding="UTF-8"?><!DOCTYPE svg PUBLIC "-//W3C//DTD SVG 1.1//EN" "http://www.w3.org/Graphics/SVG/1.1/DTD/svg11.dtd"><svg xmlns="http://www.w3.org/2000/svg" xmlns:xlink="http://www.w3.org/1999/xlink" version="1.1" id="mdi-link-variant-remove" width="24" height="24" viewBox="0 0 24 24"><path d="M10.6 13.4A1 1 0 0 1 9.2 14.8A4.8 4.8 0 0 1 9.2 7.8L12.7 4.2A5.1 5.1 0 0 1 19.8 4.2A5.1 5.1 0 0 1 19.8 11.3L18.3 12.8A6.4 6.4 0 0 0 17.9 10.4L18.4 9.9A3.2 3.2 0 0 0 18.4 5.6A3.2 3.2 0 0 0 14.1 5.6L10.6 9.2A2.9 2.9 0 0 0 10.6 13.4M16.2 13.7A4.8 4.8 0 0 0 14.8 9.2A1 1 0 0 0 13.4 10.6A2.9 2.9 0 0 1 13.4 14.8L9.9 18.4A3.2 3.2 0 0 1 5.6 18.4A3.2 3.2 0 0 1 5.6 14.1L6.1 13.7A7.3 7.3 0 0 1 5.7 11.2L4.2 12.7A5.1 5.1 0 0 0 4.2 19.8A5.1 5.1 0 0 0 11.3 19.8L13.1 18A6 6 0 0 1 16.2 13.7M21.1 15.5L19 17.6L16.9 15.5L15.5 16.9L17.6 19L15.5 21.1L16.9 22.5L19 20.4L21.1 22.5L22.5 21.1L20.4 19L22.5 16.9Z" /></svg>
